src/components/AppRepoSelector/headers/assets/delayHeader.svg

<svg width="72" height="28" fill="none" xmlns="http://www.w3.org/2000/svg"><path fill="url(#paint0_linear)" d="M0 0h72v28H0z"/><path d="M41.333 20.4H40v-1.6a5.447 5.447 0 00-2.857-4.8A5.447 5.447 0 0040 9.2V7.6h1.333a.801.801 0 000-1.6H30.667a.801.801 0 000 1.6H32v1.6a5.447 5.447 0 002.857 4.8A5.447 5.447 0 0032 18.8v1.6h-1.333a.801.801 0 000 1.6h10.666a.8.8 0 000-1.6zM30.667 7.067a.267.267 0 010-.534h10.666a.267.267 0 010 .534H30.667zM32.533 9.2V7.6h6.934v1.6a4.92 4.92 0 01-2.988 4.533h-.959A4.92 4.92 0 0132.533 9.2zm0 9.6a4.92 4.92 0 012.988-4.533h.958a4.92 4.92 0 012.988 4.533v1.6a.267.267 0 00-.534 0H38.4a.267.267 0 00-.533 0h-.534a.267.267 0 00-.533 0h-.533a.267.267 0 00-.534 0H35.2a.267.267 0 00-.533 0h-.534a.267.267 0 00-.533 0h-.533a.267.267 0 00-.534 0v-1.6zm8.8 2.667H30.667a.267.267 0 010-.534h10.666a.267.267 0 010 .534z" fill="#fff"/><path d="M33.333 20.133a.267.267 0 100-.533.267.267 0 000 .533zm1.067 0a.267.267 0 100-.533.267.267 0 000 .533zm1.067 0a.267.267 0 100-.533.267.267 0 000 .533zm1.066 0a.267.267 0 100-.533.267.267 0 000 .533zm1.067 0a.267.267 0 100-.533.267.267 0 000 .533zm1.067 0a.267.267 0 100-.533.267.267 0 000 .533zm-4.8-.533a.267.267 0 100-.533.267.267 0 000 .533zm1.066 0a.267.267 0 100-.533.267.267 0 000 .533zM36 15.067a.267.267 0 100-.534.267.267 0 000 .534zm-1.6-2.934a.267.267 0 100-.533.267.267 0 000 .533zm1.067 0a.267.267 0 100-.533.267.267 0 000 .533zm1.066 0a.267.267 0 100-.533.267.267 0 000 .533zm1.067 0a.267.267 0 100-.533.267.267 0 000 .533zm-.533-.533a.267.267 0 100-.533.267.267 0 000 .533zm.533-.533a.267.267 0 100-.534.267.267 0 000 .534zm-2.667.533a.267.267 0 100-.533.267.267 0 000 .533zm1.067 0a.267.267 0 100-.533.267.267 0 000 .533zm-1.6-.533a.267.267 0 100-.534.267.267 0 000 .534zm.533 1.6a.267.267 0 100-.534.267.267 0 000 .534zm.534.533a.267.267 0 100-.533.267.267 0 000 .533zm1.066 0a.267.267 0 100-.533.267.267 0 000 .533zM36 12.667a.267.267 0 100-.534.267.267 0 000 .534zm1.067 0a.267.267 0 100-.534.267.267 0 000 .534zM36 15.867a.267.267 0 100-.534.267.267 0 000 .534zm0 .8a.267.267 0 100-.534.267.267 0 000 .534zm0 .8a.267.267 0 100-.534.267.267 0 000 .534zm0 .8a.267.267 0 100-.534.267.267 0 000 .534zm0 .8a.267.267 0 100-.534.267.267 0 000 .534zm1.067.533a.267.267 0 100-.533.267.267 0 000 .533zm1.066 0a.267.267 0 100-.533.267.267 0 000 .533z" fill="#fff"/><defs><linearGradient id="paint0_linear" x1="10.5" y1="12.25" x2="15.581" y2="33" gradientUnits="userSpaceOnUse"><stop stop-color="#FFA857"/><stop offset=".766" stop-color="#FFCA62" stop-opacity=".866"/><stop offset="1" stop-color="#FFD53F" stop-opacity=".73"/></linearGradient></defs></svg>

<svg width="72" height="28" fill="none" xmlns="http://www.w3.org/2000/svg"><path fill="url(#paint0_linear)" d="M0 0h72v28H0z"/><path d="M41.333 20.4H40v-1.6a5.447 5.447 0 00-2.857-4.8A5.447 5.447 0 0040 9.2V7.6h1.333a.801.801 0 000-1.6H30.667a.801.801 0 000 1.6H32v1.6a5.447 5.447 0 002.857 4.8A5.447 5.447 0 0032 18.8v1.6h-1.333a.801.801 0 000 1.6h10.666a.8.8 0 000-1.6zM30.667 7.067a.267.267 0 010-.534h10.666a.267.267 0 010 .534H30.667zM32.533 9.2V7.6h6.934v1.6a4.92 4.92 0 01-2.988 4.533h-.959A4.92 4.92 0 0132.533 9.2zm0 9.6a4.92 4.92 0 012.988-4.533h.958a4.92 4.92 0 012.988 4.533v1.6a.267.267 0 00-.534 0H38.4a.267.267 0 00-.533 0h-.534a.267.267 0 00-.533 0h-.533a.267.267 0 00-.534 0H35.2a.267.267 0 00-.533 0h-.534a.267.267 0 00-.533 0h-.533a.267.267 0 00-.534 0v-1.6zm8.8 2.667H30.667a.267.267 0 010-.534h10.666a.267.267 0 010 .534z" fill="#fff"/><path d="M33.333 20.133a.267.267 0 100-.533.267.267 0 000 .533zM34.4 20.133a.267.267 0 100-.533.267.267 0 000 .533zM35.467 20.133a.267.267 0 100-.533.267.267 0 000 .533zM36.533 20.133a.267.267 0 100-.533.267.267 0 000 .533zM37.6 20.133a.267.267 0 100-.533.267.267 0 000 .533zM38.667 20.133a.267.267 0 100-.533.267.267 0 000 .533zM33.867 19.6a.267.267 0 100-.533.267.267 0 000 .533zM34.933 19.6a.267.267 0 100-.533.267.267 0 000 .533zM36 15.067a.267.267 0 100-.534.267.267 0 000 .534zM34.4 12.133a.267.267 0 100-.533.267.267 0 000 .533zM35.467 12.133a.267.267 0 100-.533.267.267 0 000 .533zM36.533 12.133a.267.267 0 100-.533.267.267 0 000 .533zM37.6 12.133a.267.267 0 100-.533.267.267 0 000 .533zM37.067 11.6a.267.267 0 100-.533.267.267 0 000 .533zM37.6 11.067a.267.267 0 100-.534.267.267 0 000 .534zM34.933 11.6a.267.267 0 100-.533.267.267 0 000 .533zM36 11.6a.267.267 0 100-.533.267.267 0 000 .533zM34.4 11.067a.267.267 0 100-.534.267.267 0 000 .534zM34.933 12.667a.267.267 0 100-.534.267.267 0 000 .534zM35.467 13.2a.267.267 0 100-.533.267.267 0 000 .533zM36.533 13.2a.267.267 0 100-.533.267.267 0 000 .533zM36 12.667a.267.267 0 100-.534.267.267 0 000 .534zM37.067 12.667a.267.267 0 100-.534.267.267 0 000 .534zM36 15.867a.267.267 0 100-.534.267.267 0 000 .534zM36 16.667a.267.267 0 100-.534.267.267 0 000 .534zM36 17.467a.267.267 0 100-.534.267.267 0 000 .534zM36 18.267a.267.267 0 100-.534.267.267 0 000 .534zM36 19.067a.267.267 0 100-.534.267.267 0 000 .534zM37.067 19.6a.267.267 0 100-.533.267.267 0 000 .533zM38.133 19.6a.267.267 0 100-.533.267.267 0 000 .533z" fill="#fff"/><defs><linearGradient id="paint0_linear" x1="10.5" y1="12.25" x2="15.581" y2="33" gradientUnits="userSpaceOnUse"><stop stop-color="#FFA857"/><stop offset=".766" stop-color="#FFCA62" stop-opacity=".866"/><stop offset="1" stop-color="#FFD53F" stop-opacity=".73"/></linearGradient></defs></svg>
